blockchains/ethereum/assets/0xA4Bdb11dc0a2bEC88d24A3aa1E6Bb17201112eBe/logo.svg

<svg width="250" height="250" viewBox="0 0 250 250" fill="none" xmlns="http://www.w3.org/2000/svg">
<g clip-path="url(#clip0_37_33747)">
<path d="M131.78 167.879C131.78 171.019 131.755 173.899 131.79 176.774C131.815 178.994 130.795 179.929 128.55 180.129C119.6 180.929 119.28 180.689 118.99 171.789C118.95 170.564 118.755 169.349 118.61 167.944C116.265 167.539 114.1 167.244 111.97 166.789C101.71 164.589 94.735 153.949 97.03 143.789C97.265 142.744 98.67 141.299 99.635 141.209C103.21 140.884 106.83 140.999 110.435 141.049C112.52 141.079 113.385 142.439 113.305 144.364C113 151.754 116.83 153.414 123.27 153.304C125.895 153.259 128.54 153.209 131.135 152.874C134.46 152.439 136.125 150.259 136.63 146.999C137.95 138.554 135.545 135.224 126.98 133.969C123.005 133.389 118.99 133.069 115.02 132.459C102.785 130.589 97.01 124.064 96.755 111.654C96.67 107.509 96.58 103.284 97.275 99.2244C98.755 90.5594 104.085 85.6044 112.73 84.0744C114.48 83.7644 116.24 83.4794 118.595 83.0794C118.595 80.2744 118.65 77.5394 118.58 74.8094C118.5 71.8194 119.865 70.5994 122.855 70.6094C133.085 70.6344 131.945 70.1794 132 78.9994C132.01 80.3494 132.15 81.7044 132.23 83.1194C133.76 83.4294 134.96 83.7244 136.18 83.9094C149.06 85.8694 152.995 97.4144 152.285 107.379C152.14 109.419 150.86 110.244 148.91 110.234C145.585 110.224 142.255 110.214 138.93 110.229C136.66 110.239 135.9 109.039 135.66 106.869C134.805 99.2044 133.7 98.2744 126.03 98.1844C124.23 98.1644 122.42 98.1394 120.625 98.2544C115.615 98.5794 113.805 100.409 113.39 105.509C113.3 106.614 113.3 107.724 113.3 108.834C113.315 114.009 115.25 116.429 120.445 117.299C123.72 117.849 127.085 117.849 130.355 118.419C134.425 119.129 138.595 119.754 142.435 121.179C148.155 123.299 151.94 127.684 152.58 133.824C153.18 139.574 153.57 145.484 152.895 151.189C151.845 160.079 146.015 165.479 137.17 167.124C135.685 167.399 134.17 167.544 131.78 167.879Z" fill="url(#paint0_linear_37_33747)"/>
<path d="M30.3901 98.38C42.0001 57.045 79.9601 26.74 125 26.74C170.04 26.74 208 57.045 219.61 98.38H247.15C234.945 42.135 184.9 0 125 0C65.1001 0 15.0551 42.135 2.8501 98.38H30.3901Z" fill="url(#paint1_linear_37_33747)"/>
<path d="M223.26 124.997C223.26 128.657 223.055 132.272 222.665 135.832H249.53C249.835 132.262 250.005 128.647 250.005 124.997C250.005 121.437 249.85 117.912 249.555 114.422H222.7C223.065 117.897 223.26 121.422 223.26 124.997Z" fill="url(#paint2_linear_37_33747)"/>
<path d="M26.74 124.997C26.74 121.422 26.935 117.897 27.31 114.422H0.45C0.155 117.912 0 121.437 0 124.997C0 128.647 0.165 132.262 0.475 135.832H27.34C26.945 132.272 26.74 128.657 26.74 124.997Z" fill="url(#paint3_linear_37_33747)"/>
<path d="M219.54 151.883C207.845 193.083 169.95 223.263 125 223.263C80.0499 223.263 42.1549 193.088 30.4599 151.883H2.90991C15.2049 207.998 65.1949 250.003 125 250.003C184.805 250.003 234.795 207.998 247.09 151.883H219.54Z" fill="url(#paint4_linear_37_33747)"/>
</g>
<defs>
<linearGradient id="paint0_linear_37_33747" x1="14.0554" y1="228.073" x2="220.954" y2="37.0897" gradientUnits="userSpaceOnUse">
<stop stop-color="#8568C5"/>
<stop offset="1" stop-color="#7C4497"/>
</linearGradient>
<linearGradient id="paint1_linear_37_33747" x1="-7.20225" y1="205.045" x2="199.697" y2="14.061" gradientUnits="userSpaceOnUse">
<stop stop-color="#8568C5"/>
<stop offset="1" stop-color="#7C4497"/>
</linearGradient>
<linearGradient id="paint2_linear_37_33747" x1="64.9076" y1="283.161" x2="271.807" y2="92.1771" gradientUnits="userSpaceOnUse">
<stop stop-color="#8568C5"/>
<stop offset="1" stop-color="#7C4497"/>
</linearGradient>
<linearGradient id="paint3_linear_37_33747" x1="-37.3269" y1="172.407" x2="169.572" y2="-18.577" gradientUnits="userSpaceOnUse">
<stop stop-color="#8568C5"/>
<stop offset="1" stop-color="#7C4497"/>
</linearGradient>
<linearGradient id="paint4_linear_37_33747" x1="34.7296" y1="250.474" x2="241.629" y2="59.4903" gradientUnits="userSpaceOnUse">
<stop stop-color="#8568C5"/>
<stop offset="1" stop-color="#7C4497"/>
</linearGradient>
<clipPath id="clip0_37_33747">
<rect width="250" height="250" fill="white"/>
</clipPath>
</defs>
</svg>

<svg fill="none" height="250" viewBox="0 0 250 250" width="250" xmlns="http://www.w3.org/2000/svg" xmlns:xlink="http://www.w3.org/1999/xlink"><linearGradient id="a"><stop offset="0" stop-color="#8568c5"/><stop offset="1" stop-color="#7c4497"/></linearGradient><linearGradient id="b" gradientUnits="userSpaceOnUse" x1="14.0554" x2="220.954" xlink:href="#a" y1="228.073" y2="37.0897"/><linearGradient id="c" gradientUnits="userSpaceOnUse" x1="-7.20225" x2="199.697" xlink:href="#a" y1="205.045" y2="14.061"/><linearGradient id="d" gradientUnits="userSpaceOnUse" x1="64.9076" x2="271.807" xlink:href="#a" y1="283.161" y2="92.1771"/><linearGradient id="e" gradientUnits="userSpaceOnUse" x1="-37.3269" x2="169.572" xlink:href="#a" y1="172.407" y2="-18.577"/><linearGradient id="f" gradientUnits="userSpaceOnUse" x1="34.7296" x2="241.629" xlink:href="#a" y1="250.474" y2="59.4903"/><clipPath id="g"><path d="m0 0h250v250h-250z"/></clipPath><g clip-path="url(#g)"><path d="m131.78 167.879c0 3.14-.025 6.02.01 8.895.025 2.22-.995 3.155-3.24 3.355-8.95.8-9.27.56-9.56-8.34-.04-1.225-.235-2.44-.38-3.845-2.345-.405-4.51-.7-6.64-1.155-10.26-2.2-17.235-12.84-14.94-23 .235-1.045 1.64-2.49 2.605-2.58 3.575-.325 7.195-.21 10.8-.16 2.085.03 2.95 1.39 2.87 3.315-.305 7.39 3.525 9.05 9.965 8.94 2.625-.045 5.27-.095 7.865-.43 3.325-.435 4.99-2.615 5.495-5.875 1.32-8.445-1.085-11.775-9.65-13.03-3.975-.58-7.99-.9-11.96-1.51-12.235-1.87-18.01-8.395-18.265-20.805-.085-4.145-.175-8.37.52-12.4296 1.48-8.665 6.81-13.62 15.455-15.15 1.75-.31 3.51-.595 5.865-.995 0-2.805.055-5.54-.015-8.27-.08-2.99 1.285-4.21 4.275-4.2 10.23.025 9.09-.43 9.145 8.39.01 1.35.15 2.705.23 4.12 1.53.31 2.73.605 3.95.79 12.88 1.96 16.815 13.505 16.105 23.4696-.145 2.04-1.425 2.865-3.375 2.855-3.325-.01-6.655-.02-9.98-.005-2.27.01-3.03-1.19-3.27-3.36-.855-7.6646-1.96-8.5946-9.63-8.6846-1.8-.02-3.61-.045-5.405.07-5.01.325-6.82 2.1546-7.235 7.2546-.09 1.105-.09 2.215-.09 3.325.015 5.175 1.95 7.595 7.145 8.465 3.275.55 6.64.55 9.91 1.12 4.07.71 8.24 1.335 12.08 2.76 5.72 2.12 9.505 6.505 10.145 12.645.6 5.75.99 11.66.315 17.365-1.05 8.89-6.88 14.29-15.725 15.935-1.485.275-3 .42-5.39.755z" fill="url(#b)"/><path d="m30.3901 98.38c11.61-41.335 49.57-71.64 94.6099-71.64 45.04 0 83 30.305 94.61 71.64h27.54c-12.205-56.245-62.25-98.38-122.15-98.38-59.8999 0-109.9449 42.135-122.1499 98.38z" fill="url(#c)"/><path d="m223.26 124.997c0 3.66-.205 7.275-.595 10.835h26.865c.305-3.57.475-7.185.475-10.835 0-3.56-.155-7.085-.45-10.575h-26.855c.365 3.475.56 7 .56 10.575z" fill="url(#d)"/><path d="m26.74 124.997c0-3.575.195-7.1.57-10.575h-26.86c-.295 3.49-.45 7.015-.45 10.575 0 3.65.165 7.265.475 10.835h26.865c-.395-3.56-.6-7.175-.6-10.835z" fill="url(#e)"/><path d="m219.54 151.883c-11.695 41.2-49.59 71.38-94.54 71.38-44.9501 0-82.8451-30.175-94.5401-71.38h-27.54999c12.29499 56.115 62.28499 98.12 122.09009 98.12 59.805 0 109.795-42.005 122.09-98.12z" fill="url(#f)"/></g></svg>
